X:59
T:Greencastle Hornpipe #1, The
C:Joe Buchanan's Scottish Tome - Page 241.1
I:241 1
Z:Carl Allison
R:Hornpipe
L:1/8
M:4/4
K:G
dc | "G"B>GD>G B>GD>G | "G"((3gag) f>g e2 d>c |
"G"B>GD>G B>GD>G | "G"d>cB>c "D7"A2 d>c |
"G"B>GD>G B>GD>G | "G"((3gag) f>g "C"e2 d>c |
"G"B>gf>g "D7"e>cA>F | "G"G2 B2 G2 :|
g>a | "Em"b>ag>f e>fg>a | "Em"b>ag>f "A7"e2 f>g |
"D"a>gf>e d>ef>g | "D"a>gf>e "Bm"d2 e>f |
"G"g>fg>d ((3eef) "G"d>B | "Am"c>BA>B c>de>f |
"G"g>fg>d "D7"e>cA>F | "G"G2B2 G2 :|

